app/assets/images/icons/active/video-line.svg

<?xml version="1.0" encoding="UTF-8" standalone="no"?>
<svg width="32px" height="232px" viewBox="0 0 32 232" version="1.1" xmlns="http://www.w3.org/2000/svg" xmlns:xlink="http://www.w3.org/1999/xlink" xmlns:sketch="http://www.bohemiancoding.com/sketch/ns">
    <title>video-line</title>
    <description>Created with Sketch (http://www.bohemiancoding.com/sketch)</description>
    <defs></defs>
    <g id="Categories" stroke="none" stroke-width="1" fill="none" fill-rule="evenodd" sketch:type="MSPage">
        <path d="M28.4517088,189 L3.55225359,189 C1.59187717,189 0,187.393 0,185.414 L0,167.586 C0,165.608 1.59187717,164 3.55225359,164 L28.4517088,164 C30.4081228,164 32,165.608 32,167.586 L32,185.414 C32,187.393 30.4081228,189 28.4517088,189 Z M3.55225359,165.834 C2.59237246,165.834 1.81475978,166.619 1.81475978,167.586 L1.81475978,185.414 C1.81475978,186.383 2.59237246,187.166 3.55225359,187.166 L28.4517088,187.166 C29.4076275,187.166 30.1852402,186.383 30.1852402,185.414 L30.1852402,167.586 C30.1852402,166.619 29.4076275,165.834 28.4517088,165.834 L3.55225359,165.834 Z M11.7087667,170.1 L11.7087667,182.901 L22.2724121,176.498 L11.7087667,170.1 Z M13.7097573,173.664 L18.3853393,176.498 L13.7097573,179.33 L13.7097573,173.664 Z M13.7097573,173.664" id="video-line--lp-blue" fill="#1D4F8D" sketch:type="MSShapeGroup"></path>
        <path d="M28.4517088,149 L3.55225359,149 C1.59187717,149 0,147.393 0,145.414 L0,127.586 C0,125.608 1.59187717,124 3.55225359,124 L28.4517088,124 C30.4081228,124 32,125.608 32,127.586 L32,145.414 C32,147.393 30.4081228,149 28.4517088,149 Z M3.55225359,125.834 C2.59237246,125.834 1.81475978,126.619 1.81475978,127.586 L1.81475978,145.414 C1.81475978,146.383 2.59237246,147.166 3.55225359,147.166 L28.4517088,147.166 C29.4076275,147.166 30.1852402,146.383 30.1852402,145.414 L30.1852402,127.586 C30.1852402,126.619 29.4076275,125.834 28.4517088,125.834 L3.55225359,125.834 Z M11.7087667,130.1 L11.7087667,142.901 L22.2724121,136.498 L11.7087667,130.1 Z M13.7097573,133.664 L18.3853393,136.498 L13.7097573,139.33 L13.7097573,133.664 Z M13.7097573,133.664" id="video-line--white" fill="#FFFFFF" sketch:type="MSShapeGroup"></path>
        <path d="M28.4517088,109 L3.55225359,109 C1.59187717,109 0,107.393 0,105.414 L0,87.586 C0,85.608 1.59187717,84 3.55225359,84 L28.4517088,84 C30.4081228,84 32,85.608 32,87.586 L32,105.414 C32,107.393 30.4081228,109 28.4517088,109 Z M3.55225359,85.834 C2.59237246,85.834 1.81475978,86.619 1.81475978,87.586 L1.81475978,105.414 C1.81475978,106.383 2.59237246,107.166 3.55225359,107.166 L28.4517088,107.166 C29.4076275,107.166 30.1852402,106.383 30.1852402,105.414 L30.1852402,87.586 C30.1852402,86.619 29.4076275,85.834 28.4517088,85.834 L3.55225359,85.834 Z M11.7087667,90.1 L11.7087667,102.901 L22.2724121,96.498 L11.7087667,90.1 Z M13.7097573,93.664 L18.3853393,96.498 L13.7097573,99.33 L13.7097573,93.664 Z M13.7097573,93.664" id="video-line--subdued-grey" fill="#E5EDF5" sketch:type="MSShapeGroup"></path>
        <path d="M28.4517088,69 L3.55225359,69 C1.59187717,69 0,67.393 0,65.414 L0,47.586 C0,45.608 1.59187717,44 3.55225359,44 L28.4517088,44 C30.4081228,44 32,45.608 32,47.586 L32,65.414 C32,67.393 30.4081228,69 28.4517088,69 Z M3.55225359,45.834 C2.59237246,45.834 1.81475978,46.619 1.81475978,47.586 L1.81475978,65.414 C1.81475978,66.383 2.59237246,67.166 3.55225359,67.166 L28.4517088,67.166 C29.4076275,67.166 30.1852402,66.383 30.1852402,65.414 L30.1852402,47.586 C30.1852402,46.619 29.4076275,45.834 28.4517088,45.834 L3.55225359,45.834 Z M11.7087667,50.1 L11.7087667,62.901 L22.2724121,56.498 L11.7087667,50.1 Z M13.7097573,53.664 L18.3853393,56.498 L13.7097573,59.33 L13.7097573,53.664 Z M13.7097573,53.664" id="video-line--body-grey" fill="#67737B" sketch:type="MSShapeGroup"></path>
        <path d="M28.4517088,29 L3.55225359,29 C1.59187717,29 0,27.393 0,25.414 L0,7.586 C0,5.608 1.59187717,4 3.55225359,4 L28.4517088,4 C30.4081228,4 32,5.608 32,7.586 L32,25.414 C32,27.393 30.4081228,29 28.4517088,29 Z M3.55225359,5.834 C2.59237246,5.834 1.81475978,6.619 1.81475978,7.586 L1.81475978,25.414 C1.81475978,26.383 2.59237246,27.166 3.55225359,27.166 L28.4517088,27.166 C29.4076275,27.166 30.1852402,26.383 30.1852402,25.414 L30.1852402,7.586 C30.1852402,6.619 29.4076275,5.834 28.4517088,5.834 L3.55225359,5.834 Z M11.7087667,10.1 L11.7087667,22.901 L22.2724121,16.498 L11.7087667,10.1 Z M13.7097573,13.664 L18.3853393,16.498 L13.7097573,19.33 L13.7097573,13.664 Z M13.7097573,13.664" id="video-line--title-grey" fill="#3A434E" sketch:type="MSShapeGroup"></path>
    </g>
</svg>

<svg width="32" height="232" viewBox="0 0 32 232" xmlns="http://www.w3.org/2000/svg" xmlns:sketch="http://www.bohemiancoding.com/sketch/ns"><title>video-line</title><g sketch:type="MSPage" fill="none"><path d="M28.452 189h-24.899c-1.96 0-3.552-1.607-3.552-3.586v-17.828c0-1.978 1.592-3.586 3.552-3.586h24.899c1.956 0 3.548 1.608 3.548 3.586v17.828c0 1.979-1.592 3.586-3.548 3.586zm-24.899-23.166c-.96 0-1.737.785-1.737 1.752v17.828c0 .969.778 1.752 1.737 1.752h24.899c.956 0 1.734-.783 1.734-1.752v-17.828c0-.967-.778-1.752-1.734-1.752h-24.899zm8.157 4.266v12.801l10.564-6.403-10.564-6.398zm2.001 3.564l4.676 2.834-4.676 2.832v-5.666zm0 0" fill="#1D4F8D" sketch:type="MSShapeGroup"/><path d="M28.452 149h-24.899c-1.96 0-3.552-1.607-3.552-3.586v-17.828c0-1.978 1.592-3.586 3.552-3.586h24.899c1.956 0 3.548 1.608 3.548 3.586v17.828c0 1.979-1.592 3.586-3.548 3.586zm-24.899-23.166c-.96 0-1.737.785-1.737 1.752v17.828c0 .969.778 1.752 1.737 1.752h24.899c.956 0 1.734-.783 1.734-1.752v-17.828c0-.967-.778-1.752-1.734-1.752h-24.899zm8.157 4.266v12.801l10.564-6.403-10.564-6.398zm2.001 3.564l4.676 2.834-4.676 2.832v-5.666zm0 0" fill="#fff" sketch:type="MSShapeGroup"/><path d="M28.452 109h-24.899c-1.96 0-3.552-1.607-3.552-3.586v-17.828c0-1.978 1.592-3.586 3.552-3.586h24.899c1.956 0 3.548 1.608 3.548 3.586v17.828c0 1.979-1.592 3.586-3.548 3.586zm-24.899-23.166c-.96 0-1.737.785-1.737 1.752v17.828c0 .969.778 1.752 1.737 1.752h24.899c.956 0 1.734-.783 1.734-1.752v-17.828c0-.967-.778-1.752-1.734-1.752h-24.899zm8.157 4.266v12.801l10.564-6.403-10.564-6.398zm2.001 3.564l4.676 2.834-4.676 2.832v-5.666zm0 0" fill="#E5EDF5" sketch:type="MSShapeGroup"/><path d="M28.452 69h-24.899c-1.96 0-3.552-1.607-3.552-3.586v-17.828c0-1.978 1.592-3.586 3.552-3.586h24.899c1.956 0 3.548 1.608 3.548 3.586v17.828c0 1.979-1.592 3.586-3.548 3.586zm-24.899-23.166c-.96 0-1.737.785-1.737 1.752v17.828c0 .969.778 1.752 1.737 1.752h24.899c.956 0 1.734-.783 1.734-1.752v-17.828c0-.967-.778-1.752-1.734-1.752h-24.899zm8.157 4.266v12.801l10.564-6.403-10.564-6.398zm2.001 3.564l4.676 2.834-4.676 2.832v-5.666zm0 0" fill="#67737B" sketch:type="MSShapeGroup"/><path d="M28.452 29h-24.899c-1.96 0-3.552-1.607-3.552-3.586v-17.828c0-1.978 1.592-3.586 3.552-3.586h24.899c1.956 0 3.548 1.608 3.548 3.586v17.828c0 1.979-1.592 3.586-3.548 3.586zm-24.899-23.166c-.96 0-1.737.785-1.737 1.752v17.828c0 .969.778 1.752 1.737 1.752h24.899c.956 0 1.734-.783 1.734-1.752v-17.828c0-.967-.778-1.752-1.734-1.752h-24.899zm8.157 4.266v12.801l10.564-6.403-10.564-6.398zm2.001 3.564l4.676 2.834-4.676 2.832v-5.666zm0 0" fill="#3A434E" sketch:type="MSShapeGroup"/></g></svg>
